X:2029
T:Blackberry Blossom
R:Hornpipe
C:Trad.
O:USA
Z:Paul Hardy's Session Tunebook 2015 (see www.paulhardy.net). Creative Commons cc by-nc-sa licenced.
M:4/4
L:1/8
Q:1/4=120
K:G
"G"gabg "D"fgaf|"C"efge "G"dBAG|"C"EFGE "G"DEGA|BdBG "D"Acef|
"G"gabg "D"fgaf|"C"efge "G"dBAG|"C"EFGE "G"DEGA|BG"D"AF "G"G4:|
|:"Em"B2 eB dBed|B2 eB "Bm"dBAG|"Em"B2 eB "D"d2ef|"G"gbaf "D"gfed|
"Em"B2 eB dBed|B2 eB "Bm"dBAG|"Em"B2 eB "D"d2ed|"G"BG"D"AF "G"G4:|

